src/assets/pin.svg

<svg width="16" height="16" viewBox="0 0 16 16" fill="none" xmlns="http://www.w3.org/2000/svg">
<g clip-path="url(#clip0_1_333)">
<path d="M6.04543 10.8983L9.3121 14.165L9.78343 13.6936C10.435 13.0398 10.9051 12.2277 11.1477 11.3371C11.3902 10.4466 11.3968 9.50818 11.1668 8.61429L11.0028 7.94762L12.3934 6.55696L12.5381 6.70162C12.875 7.04689 13.3225 7.26277 13.8024 7.31151C14.2823 7.36026 14.764 7.23877 15.1634 6.96829C15.4002 6.7996 15.5973 6.58133 15.7411 6.32868C15.8849 6.07603 15.9718 5.79508 15.996 5.50538C16.0201 5.21569 15.9808 4.92422 15.8807 4.65127C15.7807 4.37833 15.6224 4.13047 15.4168 3.92496L12.1334 0.63629C11.7966 0.291024 11.3491 0.0751468 10.8692 0.026401C10.3893 -0.0223448 9.9075 0.099143 9.5081 0.369624C9.27135 0.538312 9.07423 0.756582 8.93045 1.00923C8.78667 1.26188 8.69969 1.54284 8.67558 1.83253C8.65146 2.12223 8.69079 2.4137 8.79082 2.68664C8.89084 2.95959 9.04917 3.20745 9.25477 3.41296L9.4501 3.60829L8.05677 5.00029L7.4001 4.83896C6.50469 4.6071 5.56432 4.61255 4.67165 4.85478C3.77899 5.097 2.96484 5.56763 2.30943 6.22029L1.8381 6.69162L5.10477 9.95496L0.195435 14.8623L1.1381 15.805L6.04543 10.8983ZM7.07143 6.13362L8.47143 6.47629L11.3381 3.60962L10.1954 2.47162C10.1264 2.40276 10.0733 2.31959 10.0399 2.22798C10.0065 2.13637 9.99365 2.03856 10.0022 1.94142C10.0107 1.84429 10.0404 1.75021 10.0892 1.66581C10.1381 1.58142 10.2048 1.50876 10.2848 1.45296C10.427 1.36684 10.5946 1.33242 10.7593 1.35549C10.924 1.37857 11.0757 1.45773 11.1888 1.57962L14.4714 4.86229C14.5405 4.93116 14.5935 5.01432 14.6269 5.10593C14.6603 5.19754 14.6732 5.29536 14.6647 5.39249C14.6562 5.48962 14.6265 5.5837 14.5776 5.6681C14.5288 5.7525 14.4621 5.82516 14.3821 5.88096C14.2399 5.96707 14.0723 6.0015 13.9076 5.97842C13.7429 5.95535 13.5912 5.87619 13.4781 5.75429L12.3908 4.66696L9.5241 7.53362L9.86943 8.94096C10.0149 9.50117 10.0366 10.0863 9.93296 10.6558C9.82934 11.2252 9.60292 11.7652 9.26943 12.2383L3.7641 6.73362C4.23855 6.39906 4.78029 6.17205 5.35151 6.06842C5.92274 5.96479 6.5097 5.98704 7.07143 6.13362Z" fill="#7F858D"/>
</g>
<defs>
<clipPath id="clip0_1_333">
<rect width="16" height="16" fill="white"/>
</clipPath>
</defs>
</svg>

<svg width="16" height="16" fill="none" xmlns="http://www.w3.org/2000/svg">
  <g clip-path="url(#prefix__clip0_1_333)">
    <path
      d="M6.045 10.898l3.267 3.267.471-.471a5.318 5.318 0 001.384-5.08l-.164-.666 1.39-1.391.145.145a2.057 2.057 0 002.625.266 2 2 0 00.254-3.043L12.133.636A2.056 2.056 0 009.508.37a2 2 0 00-.253 3.043l.195.195L8.057 5 7.4 4.84A5.323 5.323 0 002.31 6.22l-.472.472 3.267 3.263-4.91 4.907.943.943 4.907-4.907zm1.026-4.764l1.4.342 2.867-2.866-1.143-1.138a.667.667 0 01.09-1.019.723.723 0 01.904.127l3.282 3.282a.666.666 0 01-.089 1.019.722.722 0 01-.904-.127l-1.087-1.087-2.867 2.867.345 1.407a3.984 3.984 0 01-.6 3.297L3.764 6.734a3.99 3.99 0 013.307-.6z"
      fill="currentColor" />
  </g>
</svg>
